icon-svg/zucchini.svg

<svg xmlns="http://www.w3.org/2000/svg" viewBox="0 0 24 24"><path fill="#44739e" d="M21.723 3.091a1.66 1.66 0 0 0-.565-.987c-.262-.2-.435-.122-.69.319a2.8 2.8 0 0 1-.586.738 1.36 1.36 0 0 1-.572.237c-.255.067-.562.228-.562.295a.04.04 0 0 0 .031.039.5.5 0 0 1 .139.171l.107.167.131-.072.28-.164c.08-.048.249-.149.364-.216a2.04 2.04 0 0 0 .7-.644c.2-.273.246-.31.276-.231.024.061-.046.183-.243.435a2.4 2.4 0 0 1-.878.671 4 4 0 0 0-.407.24l-.063.054.109.228a.77.77 0 0 0 .319.375 1.2 1.2 0 0 0 .215.136c0-.006.043-.069.085-.145a6 6 0 0 1 .45-.548 4.5 4.5 0 0 0 .816-1.091c.124-.249.216-.322.216-.176a2.1 2.1 0 0 1-.347.665c-.073.1-.3.373-.5.6a7 7 0 0 0-.489.59l-.118.179.133.125a1.2 1.2 0 0 1 .2.258l.067.137.039-.077a2 2 0 0 0 .088-.374 1.65 1.65 0 0 1 .766-1.158c.397-.339.507-.509.489-.776M20.247 6.25a5.7 5.7 0 0 1-.356 1.291 9.7 9.7 0 0 1-2.281 3.052 24 24 0 0 0-3.628 4.173 23 23 0 0 1-2.268 2.858c-.444.477-1.558 1.571-1.941 1.9a6.3 6.3 0 0 1-3.876 1.779c-.607.028-.765-.054-.179-.091a6.66 6.66 0 0 0 3.591-1.532 25.4 25.4 0 0 0 4.592-5.033 20.8 20.8 0 0 1 3.2-3.735 18.5 18.5 0 0 0 1.808-2.005 5.6 5.6 0 0 0 1.13-2.253 3.8 3.8 0 0 0 .058-1.181c-.043-.146-.161-.316-.225-.316-.021 0-.055.082-.076.188-.128.62-.389 1.036-1.491 2.393-.28.343-.726.917-1 1.279a11 11 0 0 1-2.133 2.317 25 25 0 0 0-1.88 1.792 203 203 0 0 0-2.633 2.901A34 34 0 0 1 7.25 19.3a7 7 0 0 1-1.34.9l-.112.045.118-.106c.067-.058.283-.219.483-.355A11 11 0 0 0 7.846 18.6a34 34 0 0 0 3.1-3.134c.158-.182.459-.517.669-.745s.583-.635.832-.911a36 36 0 0 1 2.6-2.557 11.9 11.9 0 0 0 2.331-2.578c.255-.344.665-.872.914-1.173a8.3 8.3 0 0 0 1.154-1.6 1.64 1.64 0 0 0 .218-.747c0-.158-.009-.179-.1-.261a.8.8 0 0 0-.2-.128c-.091-.039-.119-.033-.307.04a5 5 0 0 0-1.02.595 11.7 11.7 0 0 0-2.401 2.733 10 10 0 0 1-1.243 1.565 12 12 0 0 1-1.761 1.415 37 37 0 0 0-5.133 4.357 13.4 13.4 0 0 0-2.737 3.368c-.206.425-.24.447-.118.088a5.4 5.4 0 0 1 .941-1.576 19.6 19.6 0 0 1 2.689-2.84 42 42 0 0 1 4.2-3.432 9.6 9.6 0 0 0 2.736-2.6 16.5 16.5 0 0 1 1.899-2.417 5.3 5.3 0 0 1 1.765-1.333c.285-.129.319-.153.31-.217a.44.44 0 0 0-.234-.314 2.3 2.3 0 0 0-1.048 0 4.2 4.2 0 0 0-1.176.612 8.8 8.8 0 0 0-1.6 1.721c-.149.21-.234.3-.234.246a9 9 0 0 1 .8-1.151 4.22 4.22 0 0 1 2.818-1.655c.1 0 .183-.012.183-.027a.5.5 0 0 0-.173-.115 1 1 0 0 0-.556-.091 3.3 3.3 0 0 0-.577.033c-.982.206-1.76.817-2.801 2.194-.911 1.211-1.379 1.573-3.751 2.9a28.7 28.7 0 0 0-5.301 3.62 9.2 9.2 0 0 0-2.986 3.879 4.2 4.2 0 0 0 .432 3.818 8.3 8.3 0 0 0 1.418 1.342 3.7 3.7 0 0 0 1.035.422 6 6 0 0 0 1.729-.018 7.1 7.1 0 0 0 3.162-1.692c.41-.355 1.306-1.266 1.852-1.883a17.3 17.3 0 0 0 2.157-2.885 18.7 18.7 0 0 1 2.645-3.426 16 16 0 0 0 2.795-3.587 3.96 3.96 0 0 0 .549-1.9c.022-.569-.021-.727-.075-.305M3.295 19.015a4 4 0 0 1-.039.465 2.3 2.3 0 0 1-.043-.759 5.3 5.3 0 0 1 .58-2.008 11.4 11.4 0 0 1 3.038-3.608 29 29 0 0 1 4.617-3.206A12.2 12.2 0 0 0 14.09 8.02l.219-.221c.04 0-.115.21-.309.419a12.4 12.4 0 0 1-2.719 1.935c-3.364 2.025-5.464 3.784-6.794 5.695a5.8 5.8 0 0 0-1.192 3.167"/></svg>

<?xml version="1.0" encoding="UTF-8"?>
<svg width="24px" fill="#44739e" height="24px" viewBox="0 0 24 24" version="1.1" xmlns="http://www.w3.org/2000/svg" xmlns:xlink="http://www.w3.org/1999/xlink">
            <path d="M 21.713,3.093 A 1.658,1.658 0 0 0 21.148,2.106 c -0.262,-0.2 -0.435,-0.122 -0.69,0.319 A 2.748,2.748 0 0 1 19.872,3.163 1.358,1.358 0 0 1 19.3,3.4 c -0.255,0.067 -0.562,0.228 -0.562,0.295 a 0.038,0.038 0 0 0 0.031,0.039 0.53,0.53 0 0 1 0.139,0.171 L 19.015,4.072 19.146,4 c 0.07,-0.04 0.2,-0.116 0.28,-0.164 0.08,-0.048 0.249,-0.149 0.364,-0.216 a 2.037,2.037 0 0 0 0.7,-0.644 c 0.2,-0.273 0.246,-0.31 0.276,-0.231 0.024,0.061 -0.046,0.183 -0.243,0.435 a 2.4,2.4 0 0 1 -0.878,0.671 4.265,4.265 0 0 0 -0.407,0.24 l -0.063,0.054 0.109,0.228 a 0.765,0.765 0 0 0 0.319,0.374 1.232,1.232 0 0 0 0.215,0.136 c 0,-0.006 0.043,-0.069 0.085,-0.145 A 5.8,5.8 0 0 1 20.353,4.191 4.542,4.542 0 0 0 21.169,3.1 c 0.124,-0.249 0.216,-0.322 0.216,-0.176 a 2.073,2.073 0 0 1 -0.347,0.665 c -0.073,0.1 -0.3,0.373 -0.5,0.6 a 6.867,6.867 0 0 0 -0.489,0.589 l -0.118,0.179 0.133,0.125 a 1.182,1.182 0 0 1 0.2,0.258 L 20.331,5.477 20.37,5.4 A 2.132,2.132 0 0 0 20.458,5.026 1.648,1.648 0 0 1 21.224,3.869 C 21.621,3.53 21.731,3.36 21.713,3.093 Z m -1.476,3.158 a 5.65,5.65 0 0 1 -0.356,1.291 9.661,9.661 0 0 1 -2.281,3.052 23.955,23.955 0 0 0 -3.627,4.173 23.2,23.2 0 0 1 -2.268,2.857 c -0.444,0.477 -1.558,1.571 -1.941,1.9 A 6.3,6.3 0 0 1 5.889,21.303 C 5.282,21.331 5.124,21.249 5.71,21.212 a 6.664,6.664 0 0 0 3.59,-1.532 25.353,25.353 0 0 0 4.592,-5.032 20.8,20.8 0 0 1 3.2,-3.735 18.487,18.487 0 0 0 1.807,-2.005 5.575,5.575 0 0 0 1.13,-2.253 3.805,3.805 0 0 0 0.058,-1.181 C 20.044,5.328 19.926,5.158 19.862,5.158 c -0.021,0 -0.055,0.082 -0.076,0.188 -0.128,0.62 -0.389,1.036 -1.491,2.393 -0.28,0.343 -0.726,0.917 -1,1.279 a 10.983,10.983 0 0 1 -2.132,2.317 25.219,25.219 0 0 0 -1.88,1.792 c -0.869,0.938 -2.09,2.284 -2.633,2.9 A 33.945,33.945 0 0 1 7.241,19.3 7.019,7.019 0 0 1 5.902,20.2 L 5.79,20.245 5.908,20.139 C 5.975,20.081 6.191,19.92 6.391,19.784 a 10.784,10.784 0 0 0 1.446,-1.184 34.252,34.252 0 0 0 3.1,-3.134 c 0.158,-0.182 0.459,-0.516 0.669,-0.744 0.21,-0.228 0.583,-0.635 0.832,-0.911 a 36.321,36.321 0 0 1 2.6,-2.557 11.9,11.9 0 0 0 2.33,-2.578 c 0.255,-0.344 0.665,-0.872 0.914,-1.173 a 8.289,8.289 0 0 0 1.154,-1.6 1.638,1.638 0 0 0 0.218,-0.747 c 0,-0.158 -0.009,-0.179 -0.1,-0.261 a 0.844,0.844 0 0 0 -0.2,-0.128 C 19.263,4.728 19.235,4.734 19.047,4.807 a 4.954,4.954 0 0 0 -1.02,0.595 11.678,11.678 0 0 0 -2.4,2.733 9.876,9.876 0 0 1 -1.243,1.565 11.98,11.98 0 0 1 -1.761,1.415 36.787,36.787 0 0 0 -5.133,4.356 13.4,13.4 0 0 0 -2.736,3.368 c -0.206,0.425 -0.24,0.447 -0.118,0.088 a 5.424,5.424 0 0 1 0.941,-1.576 19.562,19.562 0 0 1 2.688,-2.839 41.693,41.693 0 0 1 4.2,-3.432 9.569,9.569 0 0 0 2.736,-2.6 A 16.475,16.475 0 0 1 17.1,6.063 5.321,5.321 0 0 1 18.864,4.73 c 0.285,-0.128 0.319,-0.152 0.31,-0.216 A 0.441,0.441 0 0 0 18.94,4.2 a 2.275,2.275 0 0 0 -1.048,0 4.207,4.207 0 0 0 -1.175,0.611 8.8,8.8 0 0 0 -1.6,1.721 c -0.149,0.21 -0.234,0.3 -0.234,0.246 a 9.087,9.087 0 0 1 0.8,-1.151 4.219,4.219 0 0 1 2.817,-1.654 c 0.1,0 0.183,-0.012 0.183,-0.027 A 0.52,0.52 0 0 0 18.51,3.831 1,1 0 0 0 17.954,3.74 3.29,3.29 0 0 0 17.377,3.773 c -0.981,0.206 -1.759,0.817 -2.8,2.193 -0.911,1.211 -1.379,1.573 -3.751,2.9 a 28.684,28.684 0 0 0 -5.3,3.62 9.191,9.191 0 0 0 -2.986,3.878 4.2,4.2 0 0 0 0.432,3.818 8.282,8.282 0 0 0 1.418,1.342 3.711,3.711 0 0 0 1.035,0.422 6.011,6.011 0 0 0 1.728,-0.018 7.1,7.1 0 0 0 3.162,-1.692 c 0.41,-0.355 1.306,-1.266 1.852,-1.883 a 17.308,17.308 0 0 0 2.157,-2.885 18.728,18.728 0 0 1 2.645,-3.425 16.092,16.092 0 0 0 2.794,-3.587 3.955,3.955 0 0 0 0.549,-1.9 C 20.334,5.987 20.291,5.829 20.237,6.251 Z M 3.287,19.015 A 3.7,3.7 0 0 1 3.248,19.48 2.273,2.273 0 0 1 3.205,18.721 5.27,5.27 0 0 1 3.785,16.713 11.437,11.437 0 0 1 6.822,13.106 29.214,29.214 0 0 1 11.439,9.9 12.234,12.234 0 0 0 14.081,8.021 C 14.2,7.9 14.3,7.8 14.3,7.8 c 0.04,0 -0.115,0.21 -0.309,0.419 a 12.367,12.367 0 0 1 -2.719,1.935 c -3.364,2.025 -5.463,3.784 -6.793,5.694 a 5.813,5.813 0 0 0 -1.192,3.167 z"/>

</svg>
